!!!OTL: SCHAETZCHEN ADE! SCHEIDEN THUT WEH!
!!!ARE: Europa, Mitteleuropa, Deutschland, Wuerzburg
!!!SCT: Z0296
!!!YEM: Copyright 1995, estate of Helmut Schaffrath.
**kern
*ICvox
*Ivox
*M3/8
*k[f#]
*G:
{8b
8b
8a
=1
4.g
=2
8b
8b
8a
=3
4.g}
=4
{8b
8cc
8dd
=5
8dd
8cc
8cc
=6
8a
8cc
8cc
=7
8cc
16b
16a
8b}
=8
{8b
8b
8cc
=9
4.dd
=10
8b
8b
8a
=11
4.g}
==
!!!AGN: Lyrisches Lied, Romanze, Abschieds - Lied
!!!ONB: ESAC (Essen Associative Code) Database: ZUCCAL
!!!AMT: simple triple
!!!AIN: vox
!!!EED: Helmut Schaffrath
!!!EEV: 1.0
*-
